X: 15892
T: Gráinne's
R: jig
M: 6/8
K: Gmajor
dGF GDB|GAG GDB|EcB A2 G|FED cBA|
B/c/dB GFG|E/F/GE cEG|DGc BDF|AGF G2:|
|:B^AB Ggf|eBc ADE|F^EF fef|ed^c d2 =c|
B/c/dB Ggf|ecA E3|DGc BDF|AGF G2:|
GB/c/d gfg|ecB c2 B|a^ce a2 g|fd^c d2 f|
gdB Ggf|ecA E2 c|DGc BDF|AGF G2:|

